images/11949212.svg

<?xml version="1.0" encoding="UTF-8"?>
<svg xmlns="http://www.w3.org/2000/svg" xmlns:xlink="http://www.w3.org/1999/xlink" width="300pt" height="300pt" viewBox="0 0 300 300" version="1.1">
<defs>
<g>
<symbol overflow="visible" id="glyph0-0">
<path style="stroke:none;" d="M 0.453125 1.59375 L 0.453125 -6.34375 L 4.953125 -6.34375 L 4.953125 1.59375 Z M 0.953125 1.09375 L 4.453125 1.09375 L 4.453125 -5.84375 L 0.953125 -5.84375 Z M 0.953125 1.09375 "/>
</symbol>
<symbol overflow="visible" id="glyph0-1">
<path style="stroke:none;" d="M 0.890625 -6.5625 L 2.078125 -6.5625 L 4.984375 -1.078125 L 4.984375 -6.5625 L 5.84375 -6.5625 L 5.84375 0 L 4.65625 0 L 1.75 -5.484375 L 1.75 0 L 0.890625 0 Z M 0.890625 -6.5625 "/>
</symbol>
<symbol overflow="visible" id="glyph0-2">
<path style="stroke:none;" d="M 0.890625 -6.5625 L 4.65625 -6.5625 L 4.65625 -5.8125 L 1.765625 -5.8125 L 1.765625 -3.875 L 4.375 -3.875 L 4.375 -3.140625 L 1.765625 -3.140625 L 1.765625 0 L 0.890625 0 Z M 0.890625 -6.5625 "/>
</symbol>
</g>
</defs>
<g id="surface50105">
<rect x="0" y="0" width="300" height="300" style="fill:rgb(100%,100%,100%);fill-opacity:1;stroke:none;"/>
<path style="fill:none;stroke-width:1.2;stroke-linecap:butt;stroke-linejoin:miter;stroke:rgb(0%,0%,0%);stroke-opacity:1;stroke-miterlimit:10;" d="M 207.136719 238.8125 L 187.929688 223.175781 "/>
<path style="fill:none;stroke-width:1.2;stroke-linecap:butt;stroke-linejoin:miter;stroke:rgb(0%,0%,0%);stroke-opacity:1;stroke-miterlimit:10;" d="M 230.277344 229.996094 L 207.136719 238.8125 "/>
<path style="fill:none;stroke-width:1.2;stroke-linecap:butt;stroke-linejoin:miter;stroke:rgb(0%,0%,0%);stroke-opacity:1;stroke-miterlimit:10;" d="M 187.929688 223.175781 L 191.867188 198.726562 "/>
<path style="fill:none;stroke-width:1.2;stroke-linecap:butt;stroke-linejoin:miter;stroke:rgb(0%,0%,0%);stroke-opacity:1;stroke-miterlimit:10;" d="M 191.867188 198.726562 L 215.011719 189.914062 "/>
<path style="fill:none;stroke-width:1.2;stroke-linecap:butt;stroke-linejoin:miter;stroke:rgb(0%,0%,0%);stroke-opacity:1;stroke-miterlimit:10;" d="M 215.011719 189.914062 L 234.21875 205.546875 "/>
<path style="fill:none;stroke-width:1.2;stroke-linecap:butt;stroke-linejoin:miter;stroke:rgb(0%,0%,0%);stroke-opacity:1;stroke-miterlimit:10;" d="M 215.011719 189.914062 L 218.949219 165.460938 "/>
<path style="fill:none;stroke-width:1.2;stroke-linecap:butt;stroke-linejoin:miter;stroke:rgb(0%,0%,0%);stroke-opacity:1;stroke-miterlimit:10;" d="M 234.21875 205.546875 L 230.277344 229.996094 "/>
<path style="fill:none;stroke-width:1.2;stroke-linecap:butt;stroke-linejoin:miter;stroke:rgb(0%,0%,0%);stroke-opacity:1;stroke-miterlimit:10;" d="M 218.949219 165.460938 L 209.347656 157.644531 "/>
<path style="fill:none;stroke-width:1.2;stroke-linecap:butt;stroke-linejoin:miter;stroke:rgb(0%,0%,100%);stroke-opacity:1;stroke-miterlimit:10;" d="M 209.347656 157.644531 L 199.742188 149.828125 "/>
<path style="fill:none;stroke-width:1.2;stroke-linecap:butt;stroke-linejoin:miter;stroke:rgb(0%,0%,100%);stroke-opacity:1;stroke-miterlimit:10;" d="M 199.742188 149.828125 L 187.773438 153 "/>
<path style="fill:none;stroke-width:1.2;stroke-linecap:butt;stroke-linejoin:miter;stroke:rgb(0%,0%,0%);stroke-opacity:1;stroke-miterlimit:10;" d="M 187.773438 153 L 175.804688 156.175781 "/>
<path style="fill:none;stroke-width:1.2;stroke-linecap:butt;stroke-linejoin:miter;stroke:rgb(0%,0%,0%);stroke-opacity:1;stroke-miterlimit:10;" d="M 201.105469 125.097656 L 200.421875 137.464844 "/>
<path style="fill:none;stroke-width:1.2;stroke-linecap:butt;stroke-linejoin:miter;stroke:rgb(0%,0%,100%);stroke-opacity:1;stroke-miterlimit:10;" d="M 200.421875 137.464844 L 199.742188 149.828125 "/>
<path style=" stroke:none;fill-rule:nonzero;fill:rgb(100%,100%,100%);fill-opacity:1;" d="M 196.742188 144.328125 L 203.742188 144.328125 L 203.742188 155.328125 L 196.742188 155.328125 Z M 196.742188 144.328125 "/>
<g style="fill:rgb(0%,0%,100%);fill-opacity:1;">
  <use xlink:href="#glyph0-1" x="196.742188" y="152.991211"/>
</g>
<path style="fill:none;stroke-width:1;stroke-linecap:butt;stroke-linejoin:miter;stroke:rgb(0%,0%,0%);stroke-opacity:1;stroke-miterlimit:10;" d="M 162.371094 135.371094 L 162.371094 135.371094 M 163.535156 138.132812 L 164.410156 137.570312 M 164.699219 140.898438 L 166.453125 139.769531 M 165.863281 143.664062 L 168.492188 141.96875 M 167.03125 146.429688 L 170.535156 144.164062 M 168.195312 149.191406 L 172.574219 146.363281 M 169.359375 151.957031 L 174.613281 148.5625 M 170.523438 154.722656 L 176.65625 150.761719 M 171.6875 157.488281 L 178.695312 152.960938 M 172.132812 158.546875 L 179.476562 153.804688 "/>
<path style="fill:none;stroke-width:1.2;stroke-linecap:butt;stroke-linejoin:miter;stroke:rgb(0%,0%,0%);stroke-opacity:1;stroke-miterlimit:10;" d="M 162.371094 135.371094 L 139.273438 126.433594 "/>
<path style="fill:none;stroke-width:1.2;stroke-linecap:butt;stroke-linejoin:miter;stroke:rgb(0%,0%,0%);stroke-opacity:1;stroke-miterlimit:10;" d="M 178.007812 116.164062 L 162.371094 135.371094 "/>
<path style="fill:none;stroke-width:1.2;stroke-linecap:butt;stroke-linejoin:miter;stroke:rgb(0%,0%,0%);stroke-opacity:1;stroke-miterlimit:10;" d="M 139.273438 126.433594 L 145.34375 103.527344 "/>
<path style="fill:none;stroke-width:1.2;stroke-linecap:butt;stroke-linejoin:miter;stroke:rgb(0%,0%,0%);stroke-opacity:1;stroke-miterlimit:10;" d="M 139.273438 126.433594 L 118.46875 139.867188 "/>
<path style="fill:none;stroke-width:1.2;stroke-linecap:butt;stroke-linejoin:miter;stroke:rgb(0%,0%,0%);stroke-opacity:1;stroke-miterlimit:10;" d="M 145.34375 103.527344 L 155.355469 126.179688 "/>
<path style="fill:none;stroke-width:1.2;stroke-linecap:butt;stroke-linejoin:miter;stroke:rgb(0%,0%,0%);stroke-opacity:1;stroke-miterlimit:10;" d="M 145.34375 103.527344 L 122.246094 94.59375 "/>
<path style="fill:none;stroke-width:1.2;stroke-linecap:butt;stroke-linejoin:miter;stroke:rgb(0%,0%,0%);stroke-opacity:1;stroke-miterlimit:10;" d="M 167.992188 93.515625 L 145.34375 103.527344 "/>
<path style="fill:none;stroke-width:1.2;stroke-linecap:butt;stroke-linejoin:miter;stroke:rgb(0%,0%,0%);stroke-opacity:1;stroke-miterlimit:10;" d="M 155.355469 126.179688 L 178.007812 116.164062 "/>
<path style="fill:none;stroke-width:1.2;stroke-linecap:butt;stroke-linejoin:miter;stroke:rgb(0%,0%,0%);stroke-opacity:1;stroke-miterlimit:10;" d="M 178.007812 116.164062 L 167.992188 93.515625 "/>
<path style="fill:none;stroke-width:1.2;stroke-linecap:butt;stroke-linejoin:miter;stroke:rgb(0%,0%,0%);stroke-opacity:1;stroke-miterlimit:10;" d="M 178.007812 116.164062 L 201.105469 125.097656 "/>
<path style=" stroke:none;fill-rule:nonzero;fill:rgb(0%,0%,0%);fill-opacity:1;" d="M 201.105469 125.097656 L 224.277344 115.335938 L 219.539062 107.992188 Z M 201.105469 125.097656 "/>
<path style="fill:none;stroke-width:1.2;stroke-linecap:butt;stroke-linejoin:miter;stroke:rgb(0%,0%,0%);stroke-opacity:1;stroke-miterlimit:10;" d="M 221.910156 111.664062 L 243.945312 122.964844 "/>
<path style="fill:none;stroke-width:1.2;stroke-linecap:butt;stroke-linejoin:miter;stroke:rgb(0%,0%,0%);stroke-opacity:1;stroke-miterlimit:10;" d="M 226.769531 107.609375 L 244.402344 116.648438 "/>
<path style="fill:none;stroke-width:1.2;stroke-linecap:butt;stroke-linejoin:miter;stroke:rgb(0%,0%,0%);stroke-opacity:1;stroke-miterlimit:10;" d="M 220.675781 86.929688 L 221.910156 111.664062 "/>
<path style="fill:none;stroke-width:1.2;stroke-linecap:butt;stroke-linejoin:miter;stroke:rgb(0%,0%,0%);stroke-opacity:1;stroke-miterlimit:10;" d="M 243.945312 122.964844 L 264.75 109.53125 "/>
<path style="fill:none;stroke-width:1.2;stroke-linecap:butt;stroke-linejoin:miter;stroke:rgb(0%,0%,0%);stroke-opacity:1;stroke-miterlimit:10;" d="M 264.75 109.53125 L 263.519531 84.796875 "/>
<path style="fill:none;stroke-width:1.2;stroke-linecap:butt;stroke-linejoin:miter;stroke:rgb(0%,0%,0%);stroke-opacity:1;stroke-miterlimit:10;" d="M 258.808594 107.347656 L 257.820312 87.558594 "/>
<path style="fill:none;stroke-width:1.2;stroke-linecap:butt;stroke-linejoin:miter;stroke:rgb(0%,0%,0%);stroke-opacity:1;stroke-miterlimit:10;" d="M 263.519531 84.796875 L 241.480469 73.496094 "/>
<path style="fill:none;stroke-width:1.2;stroke-linecap:butt;stroke-linejoin:miter;stroke:rgb(0%,0%,0%);stroke-opacity:1;stroke-miterlimit:10;" d="M 241.480469 73.496094 L 220.675781 86.929688 "/>
<path style="fill:none;stroke-width:1.2;stroke-linecap:butt;stroke-linejoin:miter;stroke:rgb(0%,0%,0%);stroke-opacity:1;stroke-miterlimit:10;" d="M 242.5625 79.734375 L 225.917969 90.480469 "/>
<path style="fill:none;stroke-width:1.2;stroke-linecap:butt;stroke-linejoin:miter;stroke:rgb(0%,0%,0%);stroke-opacity:1;stroke-miterlimit:10;" d="M 122.246094 94.59375 L 118.433594 70.121094 "/>
<path style="fill:none;stroke-width:1.2;stroke-linecap:butt;stroke-linejoin:miter;stroke:rgb(0%,0%,0%);stroke-opacity:1;stroke-miterlimit:10;" d="M 116.105469 93.042969 L 113.058594 73.464844 "/>
<path style="fill:none;stroke-width:1.2;stroke-linecap:butt;stroke-linejoin:miter;stroke:rgb(0%,0%,0%);stroke-opacity:1;stroke-miterlimit:10;" d="M 102.957031 110.128906 L 122.246094 94.59375 "/>
<path style="fill:none;stroke-width:1.2;stroke-linecap:butt;stroke-linejoin:miter;stroke:rgb(0%,0%,0%);stroke-opacity:1;stroke-miterlimit:10;" d="M 118.433594 70.121094 L 106.886719 65.65625 "/>
<path style="fill:none;stroke-width:1.2;stroke-linecap:butt;stroke-linejoin:miter;stroke:rgb(0%,0%,100%);stroke-opacity:1;stroke-miterlimit:10;" d="M 106.886719 65.65625 L 95.335938 61.1875 "/>
<path style="fill:none;stroke-width:1.2;stroke-linecap:butt;stroke-linejoin:miter;stroke:rgb(0%,0%,100%);stroke-opacity:1;stroke-miterlimit:10;" d="M 95.335938 61.1875 L 85.695312 68.953125 "/>
<path style="fill:none;stroke-width:1.2;stroke-linecap:butt;stroke-linejoin:miter;stroke:rgb(0%,0%,0%);stroke-opacity:1;stroke-miterlimit:10;" d="M 85.695312 68.953125 L 76.050781 76.722656 "/>
<path style="fill:none;stroke-width:1.2;stroke-linecap:butt;stroke-linejoin:miter;stroke:rgb(0%,0%,100%);stroke-opacity:1;stroke-miterlimit:10;" d="M 97.0625 67.277344 L 89.347656 73.492188 "/>
<path style="fill:none;stroke-width:1.2;stroke-linecap:butt;stroke-linejoin:miter;stroke:rgb(0%,0%,0%);stroke-opacity:1;stroke-miterlimit:10;" d="M 89.347656 73.492188 L 81.632812 79.707031 "/>
<path style=" stroke:none;fill-rule:nonzero;fill:rgb(100%,100%,100%);fill-opacity:1;" d="M 92.335938 55.6875 L 99.335938 55.6875 L 99.335938 66.6875 L 92.335938 66.6875 Z M 92.335938 55.6875 "/>
<g style="fill:rgb(0%,0%,100%);fill-opacity:1;">
  <use xlink:href="#glyph0-1" x="92.335938" y="64.350586"/>
</g>
<path style="fill:none;stroke-width:1.2;stroke-linecap:butt;stroke-linejoin:miter;stroke:rgb(0%,0%,0%);stroke-opacity:1;stroke-miterlimit:10;" d="M 76.050781 76.722656 L 79.859375 101.191406 "/>
<path style="fill:none;stroke-width:1.2;stroke-linecap:butt;stroke-linejoin:miter;stroke:rgb(0%,0%,0%);stroke-opacity:1;stroke-miterlimit:10;" d="M 79.859375 101.191406 L 102.957031 110.128906 "/>
<path style="fill:none;stroke-width:1.2;stroke-linecap:butt;stroke-linejoin:miter;stroke:rgb(0%,0%,0%);stroke-opacity:1;stroke-miterlimit:10;" d="M 84.273438 96.652344 L 102.75 103.800781 "/>
<path style="fill:none;stroke-width:1.2;stroke-linecap:butt;stroke-linejoin:miter;stroke:rgb(0%,0%,0%);stroke-opacity:1;stroke-miterlimit:10;" d="M 118.46875 139.867188 L 96.433594 128.566406 "/>
<path style="fill:none;stroke-width:1.2;stroke-linecap:butt;stroke-linejoin:miter;stroke:rgb(0%,0%,0%);stroke-opacity:1;stroke-miterlimit:10;" d="M 113.605469 143.921875 L 95.976562 134.882812 "/>
<path style="fill:none;stroke-width:1.2;stroke-linecap:butt;stroke-linejoin:miter;stroke:rgb(0%,0%,0%);stroke-opacity:1;stroke-miterlimit:10;" d="M 119.699219 164.601562 L 118.46875 139.867188 "/>
<path style="fill:none;stroke-width:1.2;stroke-linecap:butt;stroke-linejoin:miter;stroke:rgb(0%,0%,0%);stroke-opacity:1;stroke-miterlimit:10;" d="M 96.433594 128.566406 L 75.628906 142.003906 "/>
<path style="fill:none;stroke-width:1.2;stroke-linecap:butt;stroke-linejoin:miter;stroke:rgb(0%,0%,0%);stroke-opacity:1;stroke-miterlimit:10;" d="M 75.628906 142.003906 L 76.859375 166.738281 "/>
<path style="fill:none;stroke-width:1.2;stroke-linecap:butt;stroke-linejoin:miter;stroke:rgb(0%,0%,0%);stroke-opacity:1;stroke-miterlimit:10;" d="M 81.570312 144.1875 L 82.554688 163.972656 "/>
<path style="fill:none;stroke-width:1.2;stroke-linecap:butt;stroke-linejoin:miter;stroke:rgb(0%,0%,0%);stroke-opacity:1;stroke-miterlimit:10;" d="M 76.859375 166.738281 L 98.894531 178.039062 "/>
<path style="fill:none;stroke-width:1.2;stroke-linecap:butt;stroke-linejoin:miter;stroke:rgb(0%,0%,0%);stroke-opacity:1;stroke-miterlimit:10;" d="M 76.859375 166.738281 L 56.054688 180.171875 "/>
<path style="fill:none;stroke-width:1.2;stroke-linecap:butt;stroke-linejoin:miter;stroke:rgb(0%,0%,0%);stroke-opacity:1;stroke-miterlimit:10;" d="M 98.894531 178.039062 L 119.699219 164.601562 "/>
<path style="fill:none;stroke-width:1.2;stroke-linecap:butt;stroke-linejoin:miter;stroke:rgb(0%,0%,0%);stroke-opacity:1;stroke-miterlimit:10;" d="M 97.816406 171.796875 L 114.460938 161.050781 "/>
<path style="fill:none;stroke-width:1.2;stroke-linecap:butt;stroke-linejoin:miter;stroke:rgb(0%,0%,0%);stroke-opacity:1;stroke-miterlimit:10;" d="M 56.054688 180.171875 L 45.652344 186.886719 "/>
<path style="fill:none;stroke-width:1.2;stroke-linecap:butt;stroke-linejoin:miter;stroke:rgb(20%,80%,80%);stroke-opacity:1;stroke-miterlimit:10;" d="M 45.652344 186.886719 L 35.25 193.605469 "/>
<path style="fill:none;stroke-width:1.2;stroke-linecap:butt;stroke-linejoin:miter;stroke:rgb(0%,0%,0%);stroke-opacity:1;stroke-miterlimit:10;" d="M 56.054688 180.171875 L 49.335938 169.769531 "/>
<path style="fill:none;stroke-width:1.2;stroke-linecap:butt;stroke-linejoin:miter;stroke:rgb(20%,80%,80%);stroke-opacity:1;stroke-miterlimit:10;" d="M 49.335938 169.769531 L 42.621094 159.367188 "/>
<path style="fill:none;stroke-width:1.2;stroke-linecap:butt;stroke-linejoin:miter;stroke:rgb(0%,0%,0%);stroke-opacity:1;stroke-miterlimit:10;" d="M 56.054688 180.171875 L 62.773438 190.574219 "/>
<path style="fill:none;stroke-width:1.2;stroke-linecap:butt;stroke-linejoin:miter;stroke:rgb(20%,80%,80%);stroke-opacity:1;stroke-miterlimit:10;" d="M 62.773438 190.574219 L 69.488281 200.976562 "/>
<path style=" stroke:none;fill-rule:nonzero;fill:rgb(100%,100%,100%);fill-opacity:1;" d="M 29.25 188.105469 L 35.25 188.105469 L 35.25 199.105469 L 29.25 199.105469 Z M 29.25 188.105469 "/>
<g style="fill:rgb(20%,80%,80%);fill-opacity:1;">
  <use xlink:href="#glyph0-2" x="29.25" y="196.768555"/>
</g>
<path style=" stroke:none;fill-rule:nonzero;fill:rgb(100%,100%,100%);fill-opacity:1;" d="M 36.621094 153.867188 L 42.621094 153.867188 L 42.621094 164.867188 L 36.621094 164.867188 Z M 36.621094 153.867188 "/>
<g style="fill:rgb(20%,80%,80%);fill-opacity:1;">
  <use xlink:href="#glyph0-2" x="36.621094" y="162.530273"/>
</g>
<path style=" stroke:none;fill-rule:nonzero;fill:rgb(100%,100%,100%);fill-opacity:1;" d="M 66.488281 195.476562 L 72.488281 195.476562 L 72.488281 206.476562 L 66.488281 206.476562 Z M 66.488281 195.476562 "/>
<g style="fill:rgb(20%,80%,80%);fill-opacity:1;">
  <use xlink:href="#glyph0-2" x="66.488281" y="204.139648"/>
</g>
</g>
</svg>

<svg xmlns="http://www.w3.org/2000/svg" xmlns:xlink="http://www.w3.org/1999/xlink" width="300pt" height="300pt" viewBox="0 0 300 300"><defs><symbol overflow="visible"><path d="M.453 1.594v-7.938h4.5v7.938zm.5-.5h3.5v-6.938h-3.5zm0 0"/></symbol><symbol overflow="visible" id="a"><path d="M.89-6.563H2.08l2.906 5.485v-5.484h.86V0H4.656L1.75-5.484V0H.89zm0 0"/></symbol><symbol overflow="visible" id="b"><path d="M.89-6.563h3.766v.75h-2.89v1.938h2.61v.734h-2.61V0H.89zm0 0"/></symbol></defs><g><path fill="#fff" d="M0 0h300v300H0z"/><path d="M207.137 238.813l-19.207-15.637M230.277 229.996l-23.14 8.816M187.93 223.176l3.937-24.45M191.867 198.727l23.145-8.813M215.012 189.914l19.207 15.633M215.012 189.914l3.937-24.453M234.22 205.547l-3.943 24.45M218.95 165.46l-9.602-7.815" stroke-width="1.2" stroke="#000" stroke-miterlimit="10" fill="none"/><path d="M209.348 157.645l-9.606-7.817M199.742 149.828L187.772 153" stroke-width="1.2" stroke="#00f" stroke-miterlimit="10" fill="none"/><path d="M187.773 153l-11.968 3.176M201.105 125.098l-.683 12.367" stroke-width="1.2" stroke="#000" stroke-miterlimit="10" fill="none"/><path d="M200.422 137.465l-.68 12.363" stroke-width="1.2" stroke="#00f" stroke-miterlimit="10" fill="none"/><path d="M196.742 144.328h7v11h-7zm0 0" fill="#fff"/><use xlink:href="#a" x="196.742" y="152.991" fill="#00f"/><path d="M162.37 135.37m1.165 2.763l.875-.563m.29 3.328l1.753-1.128m-.59 3.894l2.63-1.695m-1.462 4.46l3.505-2.266m-2.34 5.027l4.38-2.827m-3.216 5.594l5.253-3.394m-4.09 6.16l6.133-3.96m-4.97 6.725l7.01-4.527m-6.563 5.587l7.344-4.742" stroke="#000" stroke-miterlimit="10" fill="none"/><path d="M162.37 135.37l-23.097-8.936M178.008 116.164L162.37 135.37M139.273 126.434l6.07-22.907M139.273 126.434l-20.804 13.433M145.344 103.527l10.01 22.653M145.344 103.527l-23.098-8.933M167.992 93.516l-22.648 10.01M155.355 126.18l22.653-10.016M178.008 116.164l-10.016-22.648M178.008 116.164l23.097 8.934" stroke-width="1.2" stroke="#000" stroke-miterlimit="10" fill="none"/><path d="M201.105 125.098l23.172-9.762-4.738-7.344zm0 0"/><path d="M221.91 111.664l22.035 11.3M226.77 107.61l17.632 9.038M220.676 86.93l1.234 24.734M243.945 122.965l20.805-13.434M264.75 109.53l-1.23-24.733M258.81 107.348l-.99-19.79M263.52 84.797l-22.04-11.3M241.48 73.496L220.676 86.93M242.563 79.734L225.917 90.48M122.246 94.594l-3.812-24.473M116.105 93.043l-3.046-19.578M102.957 110.13l19.29-15.536M118.434 70.12l-11.547-4.464" stroke-width="1.2" stroke="#000" stroke-miterlimit="10" fill="none"/><path d="M106.887 65.656l-11.55-4.47M95.336 61.188l-9.64 7.765" stroke-width="1.2" stroke="#00f" stroke-miterlimit="10" fill="none"/><path d="M85.695 68.953l-9.644 7.77" stroke-width="1.2" stroke="#000" stroke-miterlimit="10" fill="none"/><path d="M97.063 67.277l-7.715 6.215" stroke-width="1.2" stroke="#00f" stroke-miterlimit="10" fill="none"/><path d="M89.348 73.492l-7.715 6.215" stroke-width="1.2" stroke="#000" stroke-miterlimit="10" fill="none"/><path d="M92.336 55.688h7v11h-7zm0 0" fill="#fff"/><use xlink:href="#a" x="92.336" y="64.351" fill="#00f"/><path d="M76.05 76.723l3.81 24.468M79.86 101.19l23.097 8.94M84.273 96.652l18.477 7.15M118.47 139.867l-22.036-11.3M113.605 143.922l-17.628-9.04M119.7 164.602l-1.23-24.735M96.434 128.566L75.63 142.004M75.63 142.004l1.23 24.734M81.57 144.188l.985 19.785M76.86 166.738l22.035 11.3M76.86 166.738l-20.805 13.434M98.895 178.04L119.7 164.6M97.816 171.797l16.645-10.746M56.055 180.172l-10.403 6.715" stroke-width="1.2" stroke="#000" stroke-miterlimit="10" fill="none"/><path d="M45.652 186.887l-10.402 6.718" stroke-width="1.2" stroke="#3cc" stroke-miterlimit="10" fill="none"/><path d="M56.055 180.172l-6.72-10.402" stroke-width="1.2" stroke="#000" stroke-miterlimit="10" fill="none"/><path d="M49.336 169.77l-6.715-10.403" stroke-width="1.2" stroke="#3cc" stroke-miterlimit="10" fill="none"/><path d="M56.055 180.172l6.718 10.402" stroke-width="1.2" stroke="#000" stroke-miterlimit="10" fill="none"/><path d="M62.773 190.574l6.715 10.403" stroke-width="1.2" stroke="#3cc" stroke-miterlimit="10" fill="none"/><path d="M29.25 188.105h6v11h-6zm0 0" fill="#fff"/><use xlink:href="#b" x="29.25" y="196.769" fill="#3cc"/><path d="M36.62 153.867h6v11h-6zm0 0" fill="#fff"/><use xlink:href="#b" x="36.621" y="162.53" fill="#3cc"/><path d="M66.488 195.477h6v11h-6zm0 0" fill="#fff"/><use xlink:href="#b" x="66.488" y="204.14" fill="#3cc"/></g></svg>
